; generated by Slic3r 1.2.9 on 2015-12-04 at 21:28:08

; external perimeters extrusion width = 0.40mm
; perimeters extrusion width = 0.67mm
; infill extrusion width = 0.67mm
; solid infill extrusion width = 0.67mm
; top infill extrusion width = 0.67mm

M109 S210.0
M42 P10 S1 ; Turn on LED
G21 ; set units to millimeters
G90 ; use absolute coordinates
M82 ; use absolute distances for extrusion
M204 S500

G0 Z1 F300 ; Make sure main Z drop isn't too fast

G0 Z1 F300
G0 X0 Y0 F5000

G92 X77.7 Y52.3 ; Offset Origin from center to top right corner to accommodate Astroprint requirement
G92 E0
G21 ; set units to millimeters
G90 ; use absolute coordinates
M82 ; use absolute distances for extrusion
G92 E0
M106 S252.45
G1 Z0.200 F7800.000
G1 E-4.00000 F1800.00000
G92 E0
G1 Z0.500 F7800.000
G1 X55.711 Y32.874 F7800.000
G1 Z0.200 F7800.000
G1 E4.00000 F1800.00000
G1 X56.834 Y31.259 E4.10514 F1800.000
G1 X58.504 Y30.219 E4.21028
G1 X60.200 Y29.915 E4.30242
G1 X95.200 Y29.915 E6.17351
G1 X97.126 Y30.311 E6.27865
G1 X98.741 Y31.434 E6.38379 F1800.000
G1 X99.781 Y33.104 E6.48893
G1 X100.085 Y34.800 E6.58107
G1 X100.085 Y58.133 E7.82847
G1 X100.045 Y59.241 E7.88770
G1 X99.906 Y60.548 E7.95800
G1 X99.670 Y61.805 E8.02636
G1 X99.579 Y62.183 E8.04715
G1 X99.321 Y63.096 E8.09787
G1 X98.879 Y64.330 E8.16796
G1 X98.341 Y65.526 E8.23807
G1 X97.711 Y66.672 E8.30796
G1 X96.992 Y67.767 E8.37798
G1 X96.189 Y68.799 E8.44790
G1 X95.306 Y69.767 E8.51797
G1 X94.348 Y70.663 E8.58806
G1 X93.324 Y71.478 E8.65800
G1 X92.238 Y72.210 E8.72803
G1 X91.096 Y72.856 E8.79819
G1 X89.910 Y73.407 E8.86808
G1 X88.682 Y73.864 E8.93812
G1 X87.426 Y74.221 E9.00795
G1 X86.143 Y74.478 E9.07791
G1 X84.840 Y74.633 E9.14805
G1 X83.533 Y74.685 E9.21796
G1 X60.200 Y74.685 E10.46535
G1 X58.274 Y74.289 E10.57049
G1 X56.659 Y73.166 E10.67563
G1 X55.619 Y71.496 E10.78077
G1 X55.315 Y69.800 E10.87291
G1 X55.315 Y34.800 E12.74401
G1 X55.699 Y32.932 E12.84594
G1 X56.338 Y33.012 F7800.000
G1 X57.451 Y31.550 E12.94417 F1800.000
G1 X59.074 Y30.695 E13.04224
G1 X60.200 Y30.543 E13.10297
G1 X95.200 Y30.543 E14.97407
G1 X96.991 Y30.939 E15.07214
G1 X98.450 Y32.051 E15.17021 F1800.000
G1 X99.305 Y33.674 E15.26828
G1 X99.457 Y34.800 E15.32901
G1 X99.453 Y58.300 E16.58534
G1 X99.391 Y59.549 E16.65218
G1 X99.282 Y60.472 E16.70188
G1 X99.048 Y61.710 E16.76923
G1 X98.719 Y62.917 E16.83607
G1 X98.292 Y64.108 E16.90372
G1 X97.773 Y65.257 E16.97112
G1 X97.167 Y66.358 E17.03831
G1 X96.474 Y67.410 E17.10563
G1 X95.702 Y68.402 E17.17285
G1 X94.852 Y69.332 E17.24021
G1 X93.931 Y70.192 E17.30759
G1 X93.029 Y70.912 E17.36929
G1 X92.754 Y71.112 E17.38745
G1 X91.708 Y71.796 E17.45429
G1 X90.804 Y72.299 E17.50959
G1 X89.469 Y72.906 E17.58797
G1 X88.483 Y73.268 E17.64410
G1 X87.275 Y73.611 E17.71125
G1 X86.042 Y73.858 E17.77851
G1 X84.613 Y74.018 E17.85535
G1 X83.533 Y74.057 E17.91312
G1 X60.200 Y74.057 E19.16051
G1 X58.409 Y73.661 E19.25858
G1 X56.950 Y72.549 E19.35665
G1 X56.095 Y70.926 E19.45472
G1 X55.943 Y69.800 E19.51545
G1 X55.943 Y34.800 E21.38655
G1 X56.325 Y33.070 E21.48123
G1 X56.964 Y33.162 F7800.000
G1 X58.064 Y31.867 E21.57205 F1800.000
G1 X60.200 Y31.172 E21.69214
G1 X95.200 Y31.172 E23.56324
G1 X96.845 Y31.566 E23.65369
G1 X98.133 Y32.664 E23.74414 F1800.000
G1 X98.828 Y34.800 E23.86424
G1 X98.826 Y58.276 E25.11925
G1 X98.767 Y59.475 E25.18345
G1 X98.658 Y60.397 E25.23305
G1 X98.432 Y61.584 E25.29769
G1 X98.114 Y62.747 E25.36213
G1 X97.704 Y63.885 E25.42678
G1 X97.205 Y64.987 E25.49146
G1 X96.623 Y66.044 E25.55597
G1 X95.957 Y67.053 E25.62058
G1 X95.215 Y68.005 E25.68511
G1 X94.399 Y68.897 E25.74975
G1 X93.515 Y69.722 E25.81442
G1 X92.640 Y70.419 E25.87420
G1 X91.401 Y71.247 E25.95390
G1 X90.512 Y71.743 E26.00827
G1 X89.252 Y72.317 E26.08231
G1 X88.285 Y72.671 E26.13739
G1 X87.125 Y73.001 E26.20186
G1 X85.940 Y73.238 E26.26642
G1 X84.589 Y73.390 E26.33914
G1 X83.533 Y73.428 E26.39559
G1 X60.200 Y73.428 E27.64299
G1 X58.555 Y73.034 E27.73344
G1 X57.267 Y71.936 E27.82389
G1 X56.572 Y69.800 E27.94399
G1 X56.572 Y34.800 E29.81509
G1 X56.950 Y33.220 E29.90192
G1 E25.90192 F1800.00000
G92 E0
G1 Z0.500 F7800.000
G1 X60.405 Y35.005 F7800.000
G1 Z0.200 F7800.000
G1 E4.00000 F1800.00000
G1 X60.550 Y34.975 E4.00791 F1800.000
G1 X94.850 Y34.975 E5.84159
G1 X94.995 Y35.005 E5.84950
G1 X95.025 Y35.150 E5.85742
G1 X95.025 Y58.130 E7.08592
G1 X94.988 Y59.045 E7.13486
G1 X94.883 Y59.931 E7.18259
G1 X94.709 Y60.807 E7.23034
G1 X94.465 Y61.676 E7.27858
G1 X94.150 Y62.532 E7.32732
G1 X93.776 Y63.343 E7.37508
G1 X93.331 Y64.138 E7.42381
G1 X92.830 Y64.889 E7.47206
G1 X92.271 Y65.597 E7.52030
G1 X91.658 Y66.260 E7.56855
G1 X90.995 Y66.873 E7.61679
G1 X90.287 Y67.431 E7.66504
G1 X89.536 Y67.932 E7.71328
G1 X88.744 Y68.375 E7.76180
G1 X87.929 Y68.751 E7.80977
G1 X87.077 Y69.065 E7.85830
G1 X86.209 Y69.309 E7.90654
G1 X85.329 Y69.484 E7.95450
G1 X84.446 Y69.588 E8.00202
G1 X83.533 Y69.625 E8.05089
G1 X60.550 Y69.625 E9.27953
G1 X60.405 Y69.595 E9.28745
G1 X60.375 Y69.450 E9.29536
G1 X60.375 Y35.150 E11.12904
G1 X60.405 Y35.005 E11.13695
M106 S255
G1 Z0.400 F7800.000
G1 X60.550 Y34.975 E11.14487 F1200.000
G1 X94.850 Y34.975 E12.97854
G1 X94.995 Y35.005 E12.98645
G1 X95.025 Y35.150 E12.99437
G1 X95.025 Y58.130 E14.22287
G1 X94.988 Y59.050 E14.27211
G1 X94.883 Y59.932 E14.31957
G1 X94.710 Y60.803 E14.36706
G1 X94.466 Y61.672 E14.41533
G1 X94.149 Y62.533 E14.46434
G1 X93.777 Y63.340 E14.51187
G1 X93.330 Y64.140 E14.56086
G1 X92.828 Y64.890 E14.60912
G1 X92.269 Y65.599 E14.65738
G1 X91.656 Y66.262 E14.70563
G1 X90.993 Y66.874 E14.75389
G1 X90.284 Y67.433 E14.80215
G1 X89.533 Y67.934 E14.85041
G1 X88.744 Y68.376 E14.89876
G1 X87.925 Y68.752 E14.94693
G1 X87.076 Y69.065 E14.99530
G1 X86.207 Y69.309 E15.04357
G1 X85.324 Y69.484 E15.09170
G1 X84.454 Y69.587 E15.13852
G1 X83.533 Y69.625 E15.18779
G1 X60.550 Y69.625 E16.41648
G1 X60.405 Y69.595 E16.42439
G1 X60.375 Y69.450 E16.43231
G1 X60.375 Y35.150 E18.26598
G1 X60.405 Y35.005 E18.27390
G1 Z0.600 F7800.000
G1 X60.550 Y34.975 E18.28181 F1200.000
G1 X94.850 Y34.975 E20.11548
G1 X94.995 Y35.005 E20.12340
G1 X95.025 Y35.150 E20.13131
G1 X95.025 Y58.130 E21.35982
G1 X94.987 Y59.056 E21.40936
G1 X94.883 Y59.932 E21.45654
G1 X94.711 Y60.799 E21.50379
G1 X94.467 Y61.669 E21.55208
G1 X94.151 Y62.530 E21.60110
G1 X93.778 Y63.338 E21.64866
G1 X93.331 Y64.138 E21.69768
G1 X92.829 Y64.889 E21.74597
G1 X92.268 Y65.601 E21.79444
G1 X91.654 Y66.264 E21.84272
G1 X90.991 Y66.876 E21.89099
G1 X90.283 Y67.433 E21.93913
G1 X89.530 Y67.936 E21.98753
G1 X88.742 Y68.376 E22.03580
G1 X87.923 Y68.753 E22.08400
G1 X87.074 Y69.066 E22.13235
G1 X86.205 Y69.310 E22.18062
G1 X85.320 Y69.485 E22.22887
G1 X84.462 Y69.586 E22.27502
G1 X83.533 Y69.625 E22.32473
G1 X60.550 Y69.625 E23.55341
G1 X60.405 Y69.595 E23.56133
G1 X60.375 Y69.450 E23.56924
G1 X60.375 Y35.150 E25.40292
G1 X60.405 Y35.005 E25.41083
G1 Z0.800 F7800.000
G1 X60.550 Y34.975 E25.41875 F1200.000
G1 X94.850 Y34.975 E27.25242
G1 X94.995 Y35.005 E27.26033
G1 X95.025 Y35.150 E27.26825
G1 X95.025 Y58.130 E28.49675
G1 X94.987 Y59.062 E28.54660
G1 X94.883 Y59.933 E28.59351
G1 X94.712 Y60.795 E28.64050
G1 X94.468 Y61.665 E28.68881
G1 X94.152 Y62.526 E28.73785
G1 X93.780 Y63.335 E28.78543
G1 X93.332 Y64.136 E28.83448
G1 X92.830 Y64.887 E28.88279
G1 X92.271 Y65.597 E28.93110
G1 X91.657 Y66.260 E28.97941
G1 X90.989 Y66.878 E29.02807
G1 X90.279 Y67.437 E29.07636
G1 X89.527 Y67.938 E29.12465
G1 X88.739 Y68.378 E29.17293
G1 X87.918 Y68.755 E29.22122
G1 X87.070 Y69.067 E29.26950
G1 X86.201 Y69.311 E29.31779
G1 X85.318 Y69.485 E29.36590
G1 X84.471 Y69.585 E29.41150
G1 X83.533 Y69.625 E29.46165
G1 X60.550 Y69.625 E30.69034
G1 X60.405 Y69.595 E30.69825
G1 X60.375 Y69.450 E30.70617
G1 X60.375 Y35.150 E32.53984
G1 X60.405 Y35.005 E32.54776
G1 Z1.000 F7800.000
G1 X60.550 Y34.975 E32.55567 F1200.000
G1 X94.850 Y34.975 E34.38935
G1 X94.995 Y35.005 E34.39726
G1 X95.025 Y35.150 E34.40517
G1 X95.025 Y58.130 E35.63368
G1 X94.986 Y59.067 E35.68383
G1 X94.883 Y59.933 E35.73046
G1 X94.713 Y60.791 E35.77720
G1 X94.469 Y61.662 E35.82553
G1 X94.153 Y62.523 E35.87460
G1 X93.781 Y63.332 E35.92220
G1 X93.334 Y64.134 E35.97126
G1 X92.832 Y64.885 E36.01959
G1 X92.272 Y65.596 E36.06793
G1 X91.658 Y66.259 E36.11626
G1 X90.986 Y66.880 E36.16515
G1 X90.276 Y67.438 E36.21345
G1 X89.524 Y67.939 E36.26175
G1 X88.735 Y68.380 E36.31005
G1 X87.914 Y68.757 E36.35835
G1 X87.066 Y69.068 E36.40665
G1 X86.196 Y69.312 E36.45495
G1 X85.316 Y69.485 E36.50291
G1 X84.479 Y69.584 E36.54798
G1 X83.533 Y69.625 E36.59857
G1 X60.550 Y69.625 E37.82726
G1 X60.405 Y69.595 E37.83517
G1 X60.375 Y69.450 E37.84309
G1 X60.375 Y35.150 E39.67676
G1 X60.405 Y35.005 E39.68467
G1 Z1.200 F7800.000
G1 X60.550 Y34.975 E39.69259 F1200.000
G1 X94.850 Y34.975 E41.52626
G1 X94.995 Y35.005 E41.53418
G1 X95.025 Y35.150 E41.54209
G1 X95.025 Y58.130 E42.77059
G1 X94.985 Y59.073 E42.82104
G1 X94.882 Y59.934 E42.86740
G1 X94.713 Y60.787 E42.91389
G1 X94.470 Y61.658 E42.96225
G1 X94.154 Y62.520 E43.01133
G1 X93.782 Y63.329 E43.05895
G1 X93.335 Y64.131 E43.10804
G1 X92.833 Y64.884 E43.15639
G1 X92.273 Y65.594 E43.20475
G1 X91.659 Y66.258 E43.25310
G1 X90.984 Y66.882 E43.30222
G1 X90.274 Y67.440 E43.35053
G1 X89.521 Y67.941 E43.39884
G1 X88.732 Y68.381 E43.44716
G1 X87.911 Y68.758 E43.49547
G1 X87.062 Y69.069 E43.54378
G1 X86.192 Y69.313 E43.59210
G1 X85.314 Y69.486 E43.63992
G1 X84.487 Y69.583 E43.68444
G1 X83.533 Y69.625 E43.73548
G1 X60.550 Y69.625 E44.96416
G1 X60.405 Y69.595 E44.97208
G1 X60.375 Y69.450 E44.97999
G1 X60.375 Y35.150 E46.81367
G1 X60.405 Y35.005 E46.82158
G1 Z1.400 F7800.000
G1 X60.550 Y34.975 E46.82950 F1200.000
G1 X94.850 Y34.975 E48.66317
G1 X94.995 Y35.005 E48.67108
G1 X95.025 Y35.150 E48.67900
G1 X95.025 Y58.130 E49.90750
G1 X94.985 Y59.078 E49.95825
G1 X94.882 Y59.934 E50.00434
G1 X94.714 Y60.783 E50.05058
G1 X94.471 Y61.654 E50.09895
G1 X94.155 Y62.517 E50.14806
G1 X93.783 Y63.327 E50.19570
G1 X93.336 Y64.129 E50.24481
G1 X92.834 Y64.882 E50.29318
G1 X92.274 Y65.593 E50.34156
G1 X91.660 Y66.257 E50.38993
G1 X90.982 Y66.883 E50.43927
G1 X90.271 Y67.442 E50.48760
G1 X89.518 Y67.943 E50.53593
G1 X88.729 Y68.383 E50.58426
G1 X87.907 Y68.760 E50.63258
G1 X87.058 Y69.070 E50.68091
G1 X86.187 Y69.314 E50.72924
G1 X85.312 Y69.486 E50.77692
G1 X84.495 Y69.582 E50.82089
G1 X83.533 Y69.625 E50.87237
G1 X60.550 Y69.625 E52.10106
G1 X60.405 Y69.595 E52.10898
G1 X60.375 Y69.450 E52.11689
G1 X60.375 Y35.150 E53.95056
G1 X60.405 Y35.005 E53.95848
G1 Z1.600 F7800.000
G1 X60.550 Y34.975 E53.96639 F1200.000
G1 X94.850 Y34.975 E55.80007
G1 X94.995 Y35.005 E55.80798
G1 X95.025 Y35.150 E55.81590
G1 X95.025 Y58.130 E57.04440
G1 X94.984 Y59.084 E57.09545
G1 X94.882 Y59.935 E57.14126
G1 X94.715 Y60.779 E57.18725
G1 X94.472 Y61.651 E57.23564
G1 X94.156 Y62.514 E57.28477
G1 X93.785 Y63.324 E57.33244
G1 X93.337 Y64.127 E57.38156
G1 X92.835 Y64.880 E57.42996
G1 X92.275 Y65.591 E57.47836
G1 X91.661 Y66.256 E57.52675
G1 X90.980 Y66.885 E57.57632
G1 X90.268 Y67.444 E57.62466
G1 X89.515 Y67.944 E57.67300
G1 X88.725 Y68.384 E57.72135
G1 X87.903 Y68.761 E57.76969
G1 X87.054 Y69.072 E57.81803
G1 X86.183 Y69.315 E57.86637
G1 X85.310 Y69.486 E57.91391
G1 X84.504 Y69.581 E57.95734
G1 X83.533 Y69.625 E58.00926
G1 X60.550 Y69.625 E59.23795
G1 X60.405 Y69.595 E59.24586
G1 X60.375 Y69.450 E59.25378
G1 X60.375 Y35.150 E61.08745
G1 X60.405 Y35.005 E61.09537
G1 Z1.800 F7800.000
G1 X60.550 Y34.975 E61.10328 F1200.000
G1 X94.850 Y34.975 E62.93695
G1 X94.995 Y35.005 E62.94487
G1 X95.025 Y35.150 E62.95278
G1 X95.025 Y58.130 E64.18129
G1 X94.984 Y59.090 E64.23264
G1 X94.882 Y59.935 E64.27818
G1 X94.716 Y60.775 E64.32392
G1 X94.473 Y61.647 E64.37233
G1 X94.158 Y62.511 E64.42148
G1 X93.786 Y63.321 E64.46916
G1 X93.339 Y64.125 E64.51831
G1 X92.836 Y64.878 E64.56673
G1 X92.276 Y65.590 E64.61515
G1 X91.662 Y66.255 E64.66356
G1 X90.977 Y66.887 E64.71336
G1 X90.266 Y67.445 E64.76172
G1 X89.512 Y67.946 E64.81007
G1 X88.722 Y68.386 E64.85843
G1 X87.900 Y68.762 E64.90678
G1 X87.050 Y69.073 E64.95514
G1 X86.179 Y69.316 E65.00349
G1 X85.309 Y69.486 E65.05089
G1 X84.512 Y69.580 E65.09378
G1 X83.533 Y69.625 E65.14614
G1 X60.550 Y69.625 E66.37483
G1 X60.405 Y69.595 E66.38274
G1 X60.375 Y69.450 E66.39066
G1 X60.375 Y35.150 E68.22433
G1 X60.405 Y35.005 E68.23225
G1 Z2.000 F7800.000
G1 X60.550 Y34.975 E68.24016 F1200.000
G1 X94.850 Y34.975 E70.07383
G1 X94.995 Y35.005 E70.08175
G1 X95.025 Y35.150 E70.08966
G1 X95.025 Y58.130 E71.31816
G1 X94.983 Y59.095 E71.36983
G1 X94.882 Y59.936 E71.41508
G1 X94.717 Y60.771 E71.46057
G1 X94.474 Y61.644 E71.50901
G1 X94.159 Y62.508 E71.55818
G1 X93.787 Y63.319 E71.60588
G1 X93.340 Y64.122 E71.65505
G1 X92.837 Y64.877 E71.70349
G1 X92.277 Y65.589 E71.75193
G1 X91.663 Y66.254 E71.80037
G1 X90.975 Y66.889 E71.85039
G1 X90.263 Y67.447 E71.89876
G1 X89.509 Y67.948 E71.94713
G1 X88.719 Y68.388 E71.99550
G1 X87.896 Y68.764 E72.04387
G1 X87.046 Y69.074 E72.09223
G1 X86.174 Y69.316 E72.14060
G1 X85.307 Y69.486 E72.18786
G1 X84.520 Y69.579 E72.23020
G1 X83.533 Y69.624 E72.28301
G1 X60.550 Y69.625 E73.51170
G1 X60.405 Y69.595 E73.51961
G1 X60.375 Y69.450 E73.52753
G1 X60.375 Y35.150 E75.36120
G1 X60.405 Y35.005 E75.36912
G1 Z2.200 F7800.000
G1 X60.550 Y34.975 E75.37703 F1200.000
G1 X94.850 Y34.975 E77.21070
G1 X94.995 Y35.005 E77.21862
G1 X95.025 Y35.150 E77.22653
G1 X95.025 Y58.130 E78.45503
G1 X94.982 Y59.101 E78.50700
G1 X94.881 Y59.936 E78.55198
G1 X94.718 Y60.767 E78.59722
G1 X94.475 Y61.640 E78.64568
G1 X94.160 Y62.504 E78.69487
G1 X93.788 Y63.316 E78.74259
G1 X93.341 Y64.120 E78.79178
G1 X92.839 Y64.875 E78.84024
G1 X92.278 Y65.587 E78.88870
G1 X91.664 Y66.253 E78.93716
G1 X90.973 Y66.891 E78.98741
G1 X90.260 Y67.449 E79.03579
G1 X89.506 Y67.950 E79.08418
G1 X88.715 Y68.389 E79.13256
G1 X87.892 Y68.765 E79.18094
G1 X87.042 Y69.075 E79.22932
G1 X86.170 Y69.317 E79.27771
G1 X85.305 Y69.487 E79.32482
G1 X84.528 Y69.578 E79.36662
G1 X83.533 Y69.624 E79.41987
G1 X60.550 Y69.625 E80.64856
G1 X60.405 Y69.595 E80.65647
G1 X60.375 Y69.450 E80.66439
G1 X60.375 Y35.150 E82.49806
G1 X60.405 Y35.005 E82.50598
G1 Z2.400 F7800.000
G1 X60.550 Y34.975 E82.51389 F1200.000
G1 X94.850 Y34.975 E84.34756
G1 X94.995 Y35.005 E84.35548
G1 X95.025 Y35.150 E84.36339
G1 X95.025 Y58.130 E85.59190
G1 X94.982 Y59.107 E85.64416
G1 X94.881 Y59.937 E85.68887
G1 X94.719 Y60.762 E85.73386
G1 X94.476 Y61.636 E85.78234
G1 X94.161 Y62.501 E85.83155
G1 X93.790 Y63.313 E85.87929
G1 X93.342 Y64.118 E85.92851
G1 X92.840 Y64.873 E85.97699
G1 X92.279 Y65.586 E86.02547
G1 X91.664 Y66.252 E86.07395
G1 X90.970 Y66.893 E86.12442
G1 X90.258 Y67.451 E86.17282
G1 X89.503 Y67.951 E86.22122
G1 X88.712 Y68.391 E86.26961
G1 X87.888 Y68.767 E86.31801
G1 X87.038 Y69.076 E86.36640
G1 X86.165 Y69.318 E86.41480
G1 X85.303 Y69.487 E86.46177
G1 X84.537 Y69.577 E86.50303
G1 X83.533 Y69.624 E86.55673
G1 X60.550 Y69.625 E87.78541
G1 X60.405 Y69.595 E87.79333
G1 X60.375 Y69.450 E87.80124
G1 X60.375 Y35.150 E89.63492
G1 X60.405 Y35.005 E89.64283
G1 Z2.600 F7800.000
G1 X60.550 Y34.975 E89.65074 F1200.000
G1 X94.850 Y34.975 E91.48442
G1 X94.995 Y35.005 E91.49233
G1 X95.025 Y35.150 E91.50025
G1 X95.025 Y58.130 E92.72875
G1 X94.981 Y59.112 E92.78132
G1 X94.881 Y59.937 E92.82575
G1 X94.719 Y60.758 E92.87049
G1 X94.477 Y61.633 E92.91899
G1 X94.162 Y62.498 E92.96822
G1 X93.791 Y63.311 E93.01599
G1 X93.344 Y64.116 E93.06522
G1 X92.841 Y64.871 E93.11372
G1 X92.280 Y65.584 E93.16222
G1 X91.665 Y66.251 E93.21073
G1 X90.968 Y66.894 E93.26143
G1 X90.255 Y67.453 E93.30984
G1 X89.500 Y67.953 E93.35825
G1 X88.709 Y68.392 E93.40666
G1 X87.885 Y68.768 E93.45507
G1 X87.034 Y69.078 E93.50348
G1 X86.161 Y69.319 E93.55189
G1 X85.301 Y69.487 E93.59872
G1 X84.545 Y69.576 E93.63943
G1 X83.533 Y69.624 E93.69357
G1 X60.550 Y69.625 E94.92226
G1 X60.405 Y69.595 E94.93017
G1 X60.375 Y69.450 E94.93809
G1 X60.375 Y35.150 E96.77176
G1 X60.405 Y35.005 E96.77967
G1 Z2.800 F7800.000
G1 X60.550 Y34.975 E96.78759 F1200.000
G1 X94.850 Y34.975 E98.62126
G1 X94.995 Y35.005 E98.62918
G1 X95.025 Y35.150 E98.63709
